assets/icons/homedark.svg

<svg width="44" height="44" viewBox="0 0 44 44" fill="none" xmlns="http://www.w3.org/2000/svg">
<path d="M22 17.5H23.5M22 20.5H23.5M16 23.5H23.5M16 26.5H23.5M26.5 17.5H29.875C30.4963 17.5 31 18.0037 31 18.625V28C31 29.2426 29.9926 30.25 28.75 30.25M26.5 17.5V28C26.5 29.2426 27.5074 30.25 28.75 30.25M26.5 17.5V14.875C26.5 14.2537 25.9963 13.75 25.375 13.75H14.125C13.5037 13.75 13 14.2537 13 14.875V28C13 29.2426 14.0074 30.25 15.25 30.25H28.75M16 17.5H19V20.5H16V17.5Z" stroke="#9AA3AF" stroke-width="1.5" stroke-linecap="round" stroke-linejoin="round"/>
</svg>

<svg width="44" height="44" viewBox="0 0 44 44" fill="none" xmlns="http://www.w3.org/2000/svg"><path d="M22 17.5h1.5m-1.5 3h1.5m-7.5 3h7.5m-7.5 3h7.5m3-9h3.38c.62 0 1.12.5 1.12 1.13V28c0 1.24-1 2.25-2.25 2.25M26.5 17.5V28c0 1.24 1 2.25 2.25 2.25M26.5 17.5v-2.62c0-.63-.5-1.13-1.12-1.13H14.13c-.63 0-1.13.5-1.13 1.13V28c0 1.24 1 2.25 2.25 2.25h13.5M16 17.5h3v3h-3z" stroke="#9AA3AF" stroke-width="1.5" stroke-linecap="round" stroke-linejoin="round"/></svg>
